Newaita-dark/apps/64/com.github.artemanufrij.showmypictures.svg

<svg height="64" viewBox="0 0 64 64" width="64" xmlns="http://www.w3.org/2000/svg" xmlns:xlink="http://www.w3.org/1999/xlink"><linearGradient id="a" gradientUnits="userSpaceOnUse" x1="31.75304" x2="31.75304" y1="56.067872" y2="58.71396000006"><stop offset="0" stop-opacity=".27451"/><stop offset="1" stop-opacity="0"/></linearGradient><linearGradient id="b"><stop offset="0" stop-opacity=".313726"/><stop offset=".222222" stop-opacity=".27451"/><stop offset="1" stop-opacity="0"/></linearGradient><radialGradient id="c" cx="450.908936" cy="189.579361" gradientTransform="matrix(.00000035 -.156265 -.281277 -.0000002 104.261296 127.190665)" gradientUnits="userSpaceOnUse" r="21.166656" xlink:href="#b"/><radialGradient id="d" cx="450.908936" cy="189.579361" gradientTransform="matrix(-.00000035 .156265 .281277 .0000002 -40.755227 -15.054958)" gradientUnits="userSpaceOnUse" r="21.166656" xlink:href="#b"/><radialGradient id="e" cx="450.908936" cy="189.579361" gradientTransform="matrix(-.00000035 -.156265 .281277 -.0000002 -40.755227 127.190665)" gradientUnits="userSpaceOnUse" r="21.166656" xlink:href="#b"/><radialGradient id="f" cx="450.908936" cy="189.579361" gradientTransform="matrix(.00000035 .156265 -.281277 .0000002 104.261293 -15.054959)" gradientUnits="userSpaceOnUse" r="21.166656" xlink:href="#b"/><linearGradient id="g" gradientUnits="userSpaceOnUse" x1="21.16869799994" x2="21.16869799994" y1="56.067868" y2="5.79221000013"><stop offset="0" stop-color="#bdbdbd"/><stop offset="1" stop-color="#e0e0e0"/></linearGradient><linearGradient id="h" gradientUnits="userSpaceOnUse" x1="31.75304612482" x2="31.753048" y1="44.160475" y2="8.438296"><stop offset="0" stop-color="#e57373"/><stop offset="1" stop-color="#64b5f6"/></linearGradient><linearGradient id="i" gradientUnits="userSpaceOnUse" x1="44.321809125" x2="44.321809125" y1="25.637903" y2="13.73054054989"><stop offset="0" stop-color="#f44336"/><stop offset="1" stop-color="#ef5350"/></linearGradient><linearGradient id="j" gradientUnits="userSpaceOnUse" x1="31.753057" x2="31.753057" y1="43.81420190428" y2="9.41505638278"><stop offset="0" stop-color="#424242"/><stop offset="1" stop-color="#616161"/></linearGradient><linearGradient id="k" gradientUnits="userSpaceOnUse" x1="31.753057" x2="31.753057" y1="43.81420290428" y2="9.41505738278"><stop offset="0" stop-color="#f48fb1"/><stop offset="1" stop-color="#fce4ec"/></linearGradient><path d="m11.90625 55.871094h39.691406v2.941406h-39.691406zm0 0" fill="url(#a)"/><path d="m51.597656 56.066406h5.292969v-2.644531h-5.292969zm0 0" fill="url(#c)"/><path d="m11.90625 56.066406h-5.292969v2.648438h5.292969zm0 0" fill="url(#d)"/><path d="m11.90625 56.066406h-5.292969v-2.644531h5.292969zm0 0" fill="url(#e)"/><path d="m51.597656 56.066406h5.292969v2.648438h-5.292969zm0 0" fill="url(#f)"/><path d="m9.261719 5.792969h44.984375c1.460937 0 2.644531 1.183593 2.644531 2.644531v44.984375c0 1.460937-1.183594 2.644531-2.644531 2.644531h-44.984375c-1.460938 0-2.648438-1.183594-2.648438-2.644531v-44.984375c0-1.460938 1.1875-2.644531 2.648438-2.644531zm0 0" fill="url(#g)"/><path d="m9.261719 5.792969c-1.464844 0-2.648438 1.179687-2.648438 2.644531v.332031c0-1.464843 1.183594-2.648437 2.648438-2.648437h44.984375c1.464844 0 2.644531 1.183594 2.644531 2.648437v-.332031c0-1.464844-1.179687-2.644531-2.644531-2.644531zm0 0" fill="#fff"/><path d="m9.261719 55.835938c-1.464844 0-2.648438-1.179688-2.648438-2.644532v-.332031c0 1.464844 1.183594 2.644531 2.648438 2.644531h44.984375c1.464844 0 2.644531-1.179687 2.644531-2.644531v.332031c0 1.464844-1.179687 2.644532-2.644531 2.644532zm0 0" fill-opacity=".196078"/><path d="m74.086675-168.660675h359.840637c11.686384 0 21.15423 9.467846 21.15423 21.15423v359.840637c0 11.686384-9.467846 21.154229-21.15423 21.154229h-359.840637c-11.686384 0-21.185477-9.467845-21.185477-21.154229v-359.840637c0-11.686384 9.499093-21.15423 21.185477-21.15423zm0 0" fill="none" stroke="#212121" stroke-linecap="round" stroke-width="3" transform="matrix(.125012 0 0 .125012 0 26.877566)"/><path d="m10.585938 8.4375h42.335937c.730469 0 1.324219.59375 1.324219 1.324219v31.753906c0 .730469-.59375 1.320313-1.324219 1.320313h-42.335937c-.730469 0-1.324219-.589844-1.324219-1.320313v-31.753906c0-.730469.59375-1.324219 1.324219-1.324219zm0 0" fill="url(#h)"/><path d="m43.660156 13.730469h1.324219c2.921875 0 5.292969 2.664062 5.292969 5.953125 0 3.289062-2.371094 5.953125-5.292969 5.953125h-1.324219c-2.921875 0-5.292968-2.664063-5.292968-5.953125 0-3.289063 2.371093-5.953125 5.292968-5.953125zm0 0" fill="url(#i)"/><path d="m21.148438 18.6875c-.339844.003906-.667969.140625-.90625.382812l-10.980469 10.980469v11.464844c0 .730469.589843 1.320313 1.324219 1.320313h42.335937c.734375 0 1.324219-.589844 1.324219-1.320313v-11.070313l-8.390625-7.457031c-.542969-.484375-1.378907-.433593-1.859375.117188l-8.335938 9.527343-13.5625-13.5625c-.25-.25-.59375-.386718-.949218-.382812zm0 0" fill="url(#j)"/><path d="m21.148438 18.6875c-.339844.003906-.667969.140625-.90625.382812l-5.164063 5.160157 1.460937 1.722656c.660157.660156 2.582032.699219 4.628907-.660156 1.3125-1.304688 2.886719-1.1875 3.96875 0 1.539062 1.425781 2.933593 1.320312 4.503906 1.320312l-7.542969-7.542969c-.25-.25-.59375-.386718-.949218-.382812zm23.816406 3.96875c-.359375.003906-.714844.15625-.96875.449219l-3.070313 3.507812h.089844c.230469.503907.328125 2.316407 1.320313 1.324219 1.695312-1.695312 1.984374-.992188 2.648437-.332031.992187.992187 1.652344 1.984375 2.644531 1.65625 1.65625-.664063 1.945313-2.296875 1.207032-3.625l-2.980469-2.648438c-.253907-.226562-.574219-.335937-.890625-.332031zm0 0" fill="url(#k)"/><g fill="none" stroke-linecap="round" stroke-width="3"><path d="m84.679414-147.506445h338.65516c5.843192 0 10.592738 4.749546 10.592738 10.592738v254.006994c0 5.843192-4.749546 10.561491-10.592738 10.561491h-338.65516c-5.843192 0-10.592739-4.718299-10.592739-10.561491v-254.006994c0-5.843192 4.749547-10.592738 10.592739-10.592738zm0 0" stroke="#212121" transform="matrix(.125012 0 0 .125012 0 26.877566)"/><path d="m221.554093 136.368148c-2.156044-14.248639 15.467273-20.748019 7.43679.749928-7.093073 18.935692-16.592165 19.716868-16.43593 14.842333.812422-6.936837 9.405351-3.405925 15.779743-2.593502 8.530435 1.031151 16.810894-11.092691 16.310942-19.185668" stroke="#1a237e" stroke-linejoin="round" transform="matrix(.125012 0 0 .125012 10.584344 32.83126)"/><path d="m239.208657 128.337665c4.374583-14.373627 28.59102-20.966748 20.52929.531199-7.093073 18.935692-18.685716 18.74821-19.904349 14.123651-1.249881-4.593311 4.905781-12.905017 4.81204-12.811276" stroke="#1a237e" stroke-linejoin="round" transform="matrix(.125012 0 0 .125012 10.584344 32.83126)"/><path d="m265.331163 121.338333c17.685811-4.718299 15.061061-11.467655 14.467368-13.779934-9.717822 19.091927-10.592738 35.684093-9.936551 30.68457" stroke="#1a237e" stroke-linejoin="round" transform="matrix(.125012 0 0 .125012 10.584344 32.83126)"/><path d="m285.266759 112.68291c.218729-11.592643 19.216915-8.655424 9.21787 1.374869-8.28046 8.280459-19.404397 12.905017-15.217297 19.216914 5.124511 6.843097 18.841951-3.405924 12.186336-9.874057-6.468132-5.686957-7.874248-7.780507-8.467941-10.092786" stroke="#1a237e" stroke-linejoin="round" transform="matrix(.125012 0 0 .125012 10.584344 32.83126)"/><path d="m214.304786 166.021566c52.932445-26.434975 113.770385-26.434975 100.552897-21.15423" stroke="#1a237e" stroke-linejoin="round" transform="matrix(.125012 0 0 .125012 10.584344 32.83126)"/></g></svg>

<?xml version="1.0" encoding="UTF-8"?>
<svg xmlns="http://www.w3.org/2000/svg" xmlns:xlink="http://www.w3.org/1999/xlink" width="64px" height="64px" viewBox="0 0 64 64" version="1.1">
<defs>
<linearGradient id="linear0" gradientUnits="userSpaceOnUse" x1="254" y1="233.5" x2="254" y2="254.666672" gradientTransform="matrix(0.125012,0,0,0.125012,-0.00000763012,26.87757)">
<stop offset="0" style="stop-color:rgb(0%,0%,0%);stop-opacity:0.27451;"/>
<stop offset="1" style="stop-color:rgb(0%,0%,0%);stop-opacity:0;"/>
</linearGradient>
<radialGradient id="radial0" gradientUnits="userSpaceOnUse" cx="450.908936" cy="189.579361" fx="450.908936" fy="189.579361" r="21.166656" gradientTransform="matrix(0.000000348341,-0.156265,-0.281277,-0.000000203077,104.261296,127.190665)">
<stop offset="0" style="stop-color:rgb(0%,0%,0%);stop-opacity:0.313726;"/>
<stop offset="0.222222" style="stop-color:rgb(0%,0%,0%);stop-opacity:0.27451;"/>
<stop offset="1" style="stop-color:rgb(0%,0%,0%);stop-opacity:0;"/>
</radialGradient>
<radialGradient id="radial1" gradientUnits="userSpaceOnUse" cx="450.908936" cy="189.579361" fx="450.908936" fy="189.579361" r="21.166656" gradientTransform="matrix(-0.000000348341,0.156265,0.281277,0.000000203077,-40.755227,-15.054958)">
<stop offset="0" style="stop-color:rgb(0%,0%,0%);stop-opacity:0.313726;"/>
<stop offset="0.222222" style="stop-color:rgb(0%,0%,0%);stop-opacity:0.27451;"/>
<stop offset="1" style="stop-color:rgb(0%,0%,0%);stop-opacity:0;"/>
</radialGradient>
<radialGradient id="radial2" gradientUnits="userSpaceOnUse" cx="450.908936" cy="189.579361" fx="450.908936" fy="189.579361" r="21.166656" gradientTransform="matrix(-0.000000348341,-0.156265,0.281277,-0.000000203077,-40.755227,127.190665)">
<stop offset="0" style="stop-color:rgb(0%,0%,0%);stop-opacity:0.313726;"/>
<stop offset="0.222222" style="stop-color:rgb(0%,0%,0%);stop-opacity:0.27451;"/>
<stop offset="1" style="stop-color:rgb(0%,0%,0%);stop-opacity:0;"/>
</radialGradient>
<radialGradient id="radial3" gradientUnits="userSpaceOnUse" cx="450.908936" cy="189.579361" fx="450.908936" fy="189.579361" r="21.166656" gradientTransform="matrix(0.000000348341,0.156265,-0.281277,0.000000203077,104.261293,-15.054959)">
<stop offset="0" style="stop-color:rgb(0%,0%,0%);stop-opacity:0.313726;"/>
<stop offset="0.222222" style="stop-color:rgb(0%,0%,0%);stop-opacity:0.27451;"/>
<stop offset="1" style="stop-color:rgb(0%,0%,0%);stop-opacity:0;"/>
</radialGradient>
<linearGradient id="linear1" gradientUnits="userSpaceOnUse" x1="169.333328" y1="233.5" x2="169.333328" y2="-168.666656" gradientTransform="matrix(0.125012,0,0,0.125012,0,26.877566)">
<stop offset="0" style="stop-color:rgb(74.117649%,74.117649%,74.117649%);stop-opacity:1;"/>
<stop offset="1" style="stop-color:rgb(87.843138%,87.843138%,87.843138%);stop-opacity:1;"/>
</linearGradient>
<linearGradient id="linear2" gradientUnits="userSpaceOnUse" x1="253.999985" y1="138.25" x2="254" y2="-147.5" gradientTransform="matrix(0.125012,0,0,0.125012,0,26.877566)">
<stop offset="0" style="stop-color:rgb(89.803922%,45.09804%,45.09804%);stop-opacity:1;"/>
<stop offset="1" style="stop-color:rgb(39.215687%,70.980394%,96.470588%);stop-opacity:1;"/>
</linearGradient>
<linearGradient id="linear3" gradientUnits="userSpaceOnUse" x1="301.625" y1="-84" x2="301.625" y2="-136.916672" gradientTransform="matrix(0.225021,0,0,0.225021,-23.55015,44.539667)">
<stop offset="0" style="stop-color:rgb(95.686275%,26.274511%,21.176471%);stop-opacity:1;"/>
<stop offset="1" style="stop-color:rgb(93.725491%,32.549021%,31.37255%);stop-opacity:1;"/>
</linearGradient>
<linearGradient id="linear4" gradientUnits="userSpaceOnUse" x1="960" y1="1295.118164" x2="960" y2="255.118118" gradientTransform="matrix(0.0330761,0,0,0.0330761,0.000000537551,0.976744)">
<stop offset="0" style="stop-color:rgb(25.882354%,25.882354%,25.882354%);stop-opacity:1;"/>
<stop offset="1" style="stop-color:rgb(38.039216%,38.039216%,38.039216%);stop-opacity:1;"/>
</linearGradient>
<linearGradient id="linear5" gradientUnits="userSpaceOnUse" x1="960" y1="1295.118164" x2="960" y2="255.118118" gradientTransform="matrix(0.0330761,0,0,0.0330761,0.000000537551,0.976745)">
<stop offset="0" style="stop-color:rgb(95.686275%,56.078434%,69.411767%);stop-opacity:1;"/>
<stop offset="1" style="stop-color:rgb(98.823529%,89.411765%,92.54902%);stop-opacity:1;"/>
</linearGradient>
</defs>
<g id="surface1">
<path style=" stroke:none;fill-rule:nonzero;fill:url(#linear0);" d="M 11.90625 55.871094 L 51.597656 55.871094 L 51.597656 58.8125 L 11.90625 58.8125 Z M 11.90625 55.871094 "/>
<path style=" stroke:none;fill-rule:nonzero;fill:url(#radial0);" d="M 51.597656 56.066406 L 56.890625 56.066406 L 56.890625 53.421875 L 51.597656 53.421875 Z M 51.597656 56.066406 "/>
<path style=" stroke:none;fill-rule:nonzero;fill:url(#radial1);" d="M 11.90625 56.066406 L 6.613281 56.066406 L 6.613281 58.714844 L 11.90625 58.714844 Z M 11.90625 56.066406 "/>
<path style=" stroke:none;fill-rule:nonzero;fill:url(#radial2);" d="M 11.90625 56.066406 L 6.613281 56.066406 L 6.613281 53.421875 L 11.90625 53.421875 Z M 11.90625 56.066406 "/>
<path style=" stroke:none;fill-rule:nonzero;fill:url(#radial3);" d="M 51.597656 56.066406 L 56.890625 56.066406 L 56.890625 58.714844 L 51.597656 58.714844 Z M 51.597656 56.066406 "/>
<path style=" stroke:none;fill-rule:nonzero;fill:url(#linear1);" d="M 9.261719 5.792969 L 54.246094 5.792969 C 55.707031 5.792969 56.890625 6.976562 56.890625 8.4375 L 56.890625 53.421875 C 56.890625 54.882812 55.707031 56.066406 54.246094 56.066406 L 9.261719 56.066406 C 7.800781 56.066406 6.613281 54.882812 6.613281 53.421875 L 6.613281 8.4375 C 6.613281 6.976562 7.800781 5.792969 9.261719 5.792969 Z M 9.261719 5.792969 "/>
<path style=" stroke:none;fill-rule:nonzero;fill:rgb(100%,100%,100%);fill-opacity:1;" d="M 9.261719 5.792969 C 7.796875 5.792969 6.613281 6.972656 6.613281 8.4375 L 6.613281 8.769531 C 6.613281 7.304688 7.796875 6.121094 9.261719 6.121094 L 54.246094 6.121094 C 55.710938 6.121094 56.890625 7.304688 56.890625 8.769531 L 56.890625 8.4375 C 56.890625 6.972656 55.710938 5.792969 54.246094 5.792969 Z M 9.261719 5.792969 "/>
<path style=" stroke:none;fill-rule:nonzero;fill:rgb(0%,0%,0%);fill-opacity:0.196078;" d="M 9.261719 55.835938 C 7.796875 55.835938 6.613281 54.65625 6.613281 53.191406 L 6.613281 52.859375 C 6.613281 54.324219 7.796875 55.503906 9.261719 55.503906 L 54.246094 55.503906 C 55.710938 55.503906 56.890625 54.324219 56.890625 52.859375 L 56.890625 53.191406 C 56.890625 54.65625 55.710938 55.835938 54.246094 55.835938 Z M 9.261719 55.835938 "/>
<path style="fill:none;stroke-width:3;stroke-linecap:round;stroke-linejoin:miter;stroke:rgb(12.941177%,12.941177%,12.941177%);stroke-opacity:1;stroke-miterlimit:4;" d="M 74.086675 -168.660675 L 433.927312 -168.660675 C 445.613696 -168.660675 455.081542 -159.192829 455.081542 -147.506445 L 455.081542 212.334192 C 455.081542 224.020576 445.613696 233.488421 433.927312 233.488421 L 74.086675 233.488421 C 62.400291 233.488421 52.901198 224.020576 52.901198 212.334192 L 52.901198 -147.506445 C 52.901198 -159.192829 62.400291 -168.660675 74.086675 -168.660675 Z M 74.086675 -168.660675 " transform="matrix(0.125012,0,0,0.125012,0,26.877566)"/>
<path style=" stroke:none;fill-rule:nonzero;fill:url(#linear2);" d="M 10.585938 8.4375 L 52.921875 8.4375 C 53.652344 8.4375 54.246094 9.03125 54.246094 9.761719 L 54.246094 41.515625 C 54.246094 42.246094 53.652344 42.835938 52.921875 42.835938 L 10.585938 42.835938 C 9.855469 42.835938 9.261719 42.246094 9.261719 41.515625 L 9.261719 9.761719 C 9.261719 9.03125 9.855469 8.4375 10.585938 8.4375 Z M 10.585938 8.4375 "/>
<path style=" stroke:none;fill-rule:nonzero;fill:url(#linear3);" d="M 43.660156 13.730469 L 44.984375 13.730469 C 47.90625 13.730469 50.277344 16.394531 50.277344 19.683594 C 50.277344 22.972656 47.90625 25.636719 44.984375 25.636719 L 43.660156 25.636719 C 40.738281 25.636719 38.367188 22.972656 38.367188 19.683594 C 38.367188 16.394531 40.738281 13.730469 43.660156 13.730469 Z M 43.660156 13.730469 "/>
<path style=" stroke:none;fill-rule:nonzero;fill:url(#linear4);" d="M 21.148438 18.6875 C 20.808594 18.691406 20.480469 18.828125 20.242188 19.070312 L 9.261719 30.050781 L 9.261719 41.515625 C 9.261719 42.246094 9.851562 42.835938 10.585938 42.835938 L 52.921875 42.835938 C 53.65625 42.835938 54.246094 42.246094 54.246094 41.515625 L 54.246094 30.445312 L 45.855469 22.988281 C 45.3125 22.503906 44.476562 22.554688 43.996094 23.105469 L 35.660156 32.632812 L 22.097656 19.070312 C 21.847656 18.820312 21.503906 18.683594 21.148438 18.6875 Z M 21.148438 18.6875 "/>
<path style=" stroke:none;fill-rule:nonzero;fill:url(#linear5);" d="M 21.148438 18.6875 C 20.808594 18.691406 20.480469 18.828125 20.242188 19.070312 L 15.078125 24.230469 L 16.539062 25.953125 C 17.199219 26.613281 19.121094 26.652344 21.167969 25.292969 C 22.480469 23.988281 24.054688 24.105469 25.136719 25.292969 C 26.675781 26.71875 28.070312 26.613281 29.640625 26.613281 L 22.097656 19.070312 C 21.847656 18.820312 21.503906 18.683594 21.148438 18.6875 Z M 44.964844 22.65625 C 44.605469 22.660156 44.25 22.8125 43.996094 23.105469 L 40.925781 26.613281 L 41.015625 26.613281 C 41.246094 27.117188 41.34375 28.929688 42.335938 27.9375 C 44.03125 26.242188 44.320312 26.945312 44.984375 27.605469 C 45.976562 28.597656 46.636719 29.589844 47.628906 29.261719 C 49.285156 28.597656 49.574219 26.964844 48.835938 25.636719 L 45.855469 22.988281 C 45.601562 22.761719 45.28125 22.652344 44.964844 22.65625 Z M 44.964844 22.65625 "/>
<path style="fill:none;stroke-width:3;stroke-linecap:round;stroke-linejoin:miter;stroke:rgb(12.941177%,12.941177%,12.941177%);stroke-opacity:1;stroke-miterlimit:4;" d="M 84.679414 -147.506445 L 423.334574 -147.506445 C 429.177766 -147.506445 433.927312 -142.756899 433.927312 -136.913707 L 433.927312 117.093287 C 433.927312 122.936479 429.177766 127.654778 423.334574 127.654778 L 84.679414 127.654778 C 78.836222 127.654778 74.086675 122.936479 74.086675 117.093287 L 74.086675 -136.913707 C 74.086675 -142.756899 78.836222 -147.506445 84.679414 -147.506445 Z M 84.679414 -147.506445 " transform="matrix(0.125012,0,0,0.125012,0,26.877566)"/>
<path style="fill:none;stroke-width:3;stroke-linecap:round;stroke-linejoin:round;stroke:rgb(10.196079%,13.725491%,49.411765%);stroke-opacity:1;stroke-miterlimit:4;" d="M 221.554093 136.368148 C 219.398049 122.119509 237.021366 115.620129 228.990883 137.118076 C 221.89781 156.053768 212.398718 156.834944 212.554953 151.960409 C 213.367375 145.023572 221.960304 148.554484 228.334696 149.366907 C 236.865131 150.398058 245.14559 138.274216 244.645638 130.181239 " transform="matrix(0.125012,0,0,0.125012,10.584344,32.83126)"/>
<path style="fill:none;stroke-width:3;stroke-linecap:round;stroke-linejoin:round;stroke:rgb(10.196079%,13.725491%,49.411765%);stroke-opacity:1;stroke-miterlimit:4;" d="M 239.208657 128.337665 C 243.58324 113.964038 267.799677 107.370917 259.737947 128.868864 C 252.644874 147.804556 241.052231 147.617074 239.833598 142.992515 C 238.583717 138.399204 244.739379 130.087498 244.645638 130.181239 " transform="matrix(0.125012,0,0,0.125012,10.584344,32.83126)"/>
<path style="fill:none;stroke-width:3;stroke-linecap:round;stroke-linejoin:round;stroke:rgb(10.196079%,13.725491%,49.411765%);stroke-opacity:1;stroke-miterlimit:4;" d="M 265.331163 121.338333 C 283.016974 116.620034 280.392224 109.870678 279.798531 107.558399 C 270.080709 126.650326 269.205793 143.242492 269.86198 138.242969 " transform="matrix(0.125012,0,0,0.125012,10.584344,32.83126)"/>
<path style="fill:none;stroke-width:3;stroke-linecap:round;stroke-linejoin:round;stroke:rgb(10.196079%,13.725491%,49.411765%);stroke-opacity:1;stroke-miterlimit:4;" d="M 285.266759 112.68291 C 285.485488 101.090267 304.483674 104.027486 294.484629 114.057779 C 286.204169 122.338238 275.080232 126.962796 279.267332 133.274693 C 284.391843 140.11779 298.109283 129.868769 291.453668 123.400636 C 284.985536 117.713679 283.57942 115.620129 282.985727 113.30785 " transform="matrix(0.125012,0,0,0.125012,10.584344,32.83126)"/>
<path style="fill:none;stroke-width:3;stroke-linecap:round;stroke-linejoin:round;stroke:rgb(10.196079%,13.725491%,49.411765%);stroke-opacity:1;stroke-miterlimit:4;" d="M 214.304786 166.021566 C 267.237231 139.586591 328.075171 139.586591 314.857683 144.867336 " transform="matrix(0.125012,0,0,0.125012,10.584344,32.83126)"/>
</g>
</svg>
